picto/couchette-car.svg

<svg class="color-immutable" width="24" height="24" viewBox="0 0 24 24" fill="none" xmlns="http://www.w3.org/2000/svg"><path d="M0 22.5V1.5C0 0.675 0.675 0 1.5 0H22.5C23.325 0 24 0.675 24 1.5V22.5C24 23.325 23.325 24 22.5 24H1.5C0.675 24 0 23.325 0 22.5Z" fill="#2D327D"/><path d="M19.8 14.1V17.1H4.2V14.1H3V21H4.2V18.6H19.8V21H21V14.1H19.8Z" fill="white"/><path d="M9.29999 16.5H5.09999C4.93399 16.5 4.79999 16.366 4.79999 16.2V14.4C4.79999 14.234 4.93399 14.1 5.09999 14.1H8.39999C9.06299 14.1 9.59999 14.637 9.59999 15.3V16.2C9.59999 16.366 9.46599 16.5 9.29999 16.5Z" fill="white"/></svg>

<svg class="color-immutable" width="24" height="24" viewBox="0 0 24 24" fill="none" xmlns="http://www.w3.org/2000/svg"><g clip-path="url(#a)"><path d="M0 22.5v-21C0 .675.675 0 1.5 0h21c.825 0 1.5.675 1.5 1.5v21c0 .825-.675 1.5-1.5 1.5h-21C.675 24 0 23.325 0 22.5Z" fill="#2D327D"/><path d="M19.8 14.1v3H4.2v-3H3V21h1.2v-2.4h15.6V21H21v-6.9h-1.2Z" fill="#fff"/><path d="M9.3 16.5H5.1a.3.3 0 0 1-.3-.3v-1.8a.3.3 0 0 1 .3-.3h3.3a1.2 1.2 0 0 1 1.2 1.2v.9a.3.3 0 0 1-.3.3Z" fill="#fff"/></g><defs><clipPath id="a"><path fill="#fff" d="M0 0h24v24H0z"/></clipPath></defs></svg>
